X:1
T:Uncle Jims Jig (AP)
L:1/8
M:6/8
K:G
d|e2 d B2 d|G3 A2 G|F2 A c2 A|F3 F3|d3 f2 e|d2 c B2 A|G2 B d2 e|d3 d3|
e2 d B2 d|G3 A2 G|F2A c2 A|F3 F3|ddd f2 e|d2 c B2 A|G3 B2 A|G3 G2:||
||: A |B2 B B2 G|B2 B B2 B|A2 B c2 d|f3f2 f|d2 d f2 e|d2 c B2 A|G2 B d2 e|d3d c|
B2 B B2 G|B2 B B2 B|A2B c2 d|f3f e|d2 d f2 e|d2 c B2 A|G3 B2 A| G3G:|||
